src/lib/packages/icons/src/assets/line/two-dumbbell.svg

<svg width="24" height="24" viewBox="0 0 24 24" fill="none" xmlns="http://www.w3.org/2000/svg">
<path d="M17.5 14.2499H15.54C14.95 14.2499 14.41 14.5399 14.08 15.0299L13.6 15.7499H8.39999L7.92 15.0299C7.59 14.5399 7.05001 14.2499 6.46001 14.2499H4.5C3.26 14.2499 2.25 15.2599 2.25 16.4999V19.4999C2.25 20.7399 3.26 21.7499 4.5 21.7499H6.46001C7.05001 21.7499 7.59 21.4599 7.92 20.9699L8.39999 20.2499H13.6L14.08 20.9699C14.41 21.4599 14.95 21.7499 15.54 21.7499H17.51C18.75 21.7499 19.76 20.7399 19.76 19.4999V16.4999C19.76 15.2599 18.75 14.2499 17.51 14.2499H17.5ZM18.25 19.4999C18.25 19.9099 17.91 20.2499 17.5 20.2499H15.53C15.45 20.2499 15.37 20.2099 15.32 20.1399L14.71 19.2199C14.51 18.9299 14.19 18.7499 13.84 18.7499H8.16C7.81 18.7499 7.47999 18.9199 7.28999 19.2199L6.67999 20.1399C6.62999 20.2099 6.56 20.2499 6.47 20.2499H4.50999C4.09999 20.2499 3.75999 19.9099 3.75999 19.4999V16.4999C3.75999 16.0899 4.09999 15.7499 4.50999 15.7499H6.47C6.55 15.7499 6.62999 15.7899 6.67999 15.8599L7.28999 16.7799C7.48999 17.0699 7.81 17.2499 8.16 17.2499H13.84C14.19 17.2499 14.52 17.0799 14.71 16.7799L15.32 15.8599C15.37 15.7899 15.44 15.7499 15.53 15.7499H17.49C17.9 15.7499 18.24 16.0899 18.24 16.4999V19.4999H18.25ZM21.63 6.61987L20.67 3.77988C20.48 3.20988 20.07 2.74987 19.54 2.47987C19 2.20987 18.39 2.16987 17.82 2.36987L15.96 2.99988C15.4 3.18988 14.98 3.63988 14.83 4.19988L14.61 5.03987L9.69 6.69988L9 6.16988C8.54 5.80988 7.93 5.70987 7.37 5.89987L5.50999 6.52988C4.93999 6.71988 4.48001 7.11988 4.21001 7.65988C3.94001 8.19988 3.90001 8.80988 4.10001 9.37988L5.06 12.2199C5.38 13.1599 6.25 13.7499 7.19 13.7499C7.43 13.7499 7.67 13.7099 7.91 13.6299L9.77 12.9999C10.33 12.8099 10.75 12.3599 10.9 11.7999L11.13 10.9599L16.05 9.29988L16.74 9.82988C17.2 10.1899 17.81 10.2899 18.37 10.0999L20.23 9.46988C21.4 9.06988 22.04 7.78987 21.64 6.61987H21.63ZM19.74 8.04988L17.88 8.67987C17.8 8.70987 17.71 8.68988 17.65 8.63988L16.77 7.95989C16.49 7.74989 16.13 7.68988 15.79 7.79988L10.41 9.61987C10.08 9.72987 9.82 9.99987 9.73 10.3399L9.44 11.4099C9.42 11.4899 9.36 11.5499 9.28 11.5799L7.42 12.2099C7.03 12.3399 6.6 12.1299 6.47 11.7399L5.50999 8.89987C5.44999 8.70987 5.46 8.50988 5.55 8.32988C5.64 8.14988 5.79 8.01988 5.98 7.94988L7.84 7.31989C7.84 7.31989 7.89 7.30988 7.92 7.30988C7.97 7.30988 8.03001 7.32988 8.07001 7.35988L8.95 8.03987C9.23 8.25987 9.59999 8.31989 9.92999 8.20989L15.31 6.38988C15.64 6.27988 15.89 6.00988 15.99 5.66988L16.28 4.59988C16.3 4.51988 16.36 4.44987 16.44 4.42987L18.3 3.79988C18.49 3.73988 18.69 3.74987 18.87 3.83987C19.05 3.92987 19.18 4.07988 19.25 4.26988L20.21 7.10988C20.34 7.49988 20.13 7.92988 19.74 8.05988V8.04988Z" fill="currentColor"/>
</svg>

<svg xmlns="http://www.w3.org/2000/svg" width="24" height="24" fill="none"><path fill="currentColor" d="M17.5 14.25h-1.96c-.59 0-1.13.29-1.46.78l-.48.72H8.4l-.48-.72a1.75 1.75 0 0 0-1.46-.78H4.5c-1.24 0-2.25 1.01-2.25 2.25v3c0 1.24 1.01 2.25 2.25 2.25h1.96c.59 0 1.13-.29 1.46-.78l.48-.72h5.2l.48.72c.33.49.87.78 1.46.78h1.97c1.24 0 2.25-1.01 2.25-2.25v-3c0-1.24-1.01-2.25-2.25-2.25h-.01Zm.75 5.25c0 .41-.34.75-.75.75h-1.97a.26.26 0 0 1-.21-.11l-.61-.92c-.2-.29-.52-.47-.87-.47H8.16c-.35 0-.68.17-.87.47l-.61.92c-.05.07-.12.11-.21.11H4.51c-.41 0-.75-.34-.75-.75v-3c0-.41.34-.75.75-.75h1.96c.08 0 .16.04.21.11l.61.92c.2.29.52.47.87.47h5.68c.35 0 .68-.17.87-.47l.61-.92c.05-.07.12-.11.21-.11h1.96c.41 0 .75.34.75.75v3h.01Zm3.38-12.88-.96-2.84c-.19-.57-.6-1.03-1.13-1.3a2.19 2.19 0 0 0-1.72-.11L15.96 3c-.56.19-.98.64-1.13 1.2l-.22.84L9.69 6.7 9 6.17c-.46-.36-1.07-.46-1.63-.27l-1.86.63c-.57.19-1.03.59-1.3 1.13a2.19 2.19 0 0 0-.11 1.72l.96 2.84a2.248 2.248 0 0 0 2.85 1.41L9.77 13c.56-.19.98-.64 1.13-1.2l.23-.84 4.92-1.66.69.53c.46.36 1.07.46 1.63.27l1.86-.63c1.17-.4 1.81-1.68 1.41-2.85h-.01Zm-1.89 1.43-1.86.63c-.08.03-.17.01-.23-.04l-.88-.68a1.07 1.07 0 0 0-.98-.16l-5.38 1.82c-.33.11-.59.38-.68.72l-.29 1.07c-.02.08-.08.14-.16.17l-1.86.63a.753.753 0 0 1-.95-.47L5.51 8.9a.752.752 0 0 1 .47-.95l1.86-.63s.05-.01.08-.01c.05 0 .11.02.15.05l.88.68c.28.22.65.28.98.17l5.38-1.82c.33-.11.58-.38.68-.72l.29-1.07a.23.23 0 0 1 .16-.17l1.86-.63a.752.752 0 0 1 .95.47l.96 2.84c.13.39-.08.82-.47.95v-.01Z"/></svg>
